X:1
T:Title
%%score 1 2
L:1/8
Q:1/4=100
M:6/8
K:Eb
V:1 treble nm="Grand Piano, Soprano"
V:2 bass nm="Choir Pad, Slovenia, LMD"
V:1
 E [EG]2 [EG] [EG]2 | [EB] [Ec]2 [EB] [EG]2- | [EG][DF][EG] [FA] [EG]2 | z [DF][EG] [DF] E2 | %4
w: By~William~Stevenson,~1880 * * *||||
 E [EG]2 [EG] [EG]2 | [EB] [Ec]2 [EB] [EG]2- | [EG][DF][EG] [FA] [EG]2 | z [DF][EG] [DF] E2 | %8
w: ||||
 [EB] [Ec]2 [Ec] [EA]2 | [Ec] [EB]2 [EB] [EG]2 | [EB] [DB]2 [DB] [DF]2 | [FB] [Fd]2 [Ec] [DB]2 | %12
w: ||||
 [FA] [EG]2 [EG] [EG]2 | [GB] [Ac]2 [GB] [EG]2 | z [DF][EG] [FA] [EG]2 | z [DF][DG] [DF] E2- | %16
w: ||||
 E6 |] %17
w: |
V:2
 [E,G,] [E,B,]2 [E,B,] [E,B,]2 | [E,G,] [E,A,]2 [E,G,] [E,B,]2- | %2
 [E,B,][B,,B,][B,,B,] [B,,B,] [E,B,]2 | z [B,,B,][B,,B,] [B,,B,] [E,G,]2 | %4
 [E,G,] [E,B,]2 [E,B,] [E,B,]2 | [E,G,] [E,A,]2 [E,G,] [E,B,]2- | %6
 [E,B,][B,,B,][B,,B,] [B,,B,] [E,B,]2 | z [B,,B,][B,,B,] [B,,B,] [E,G,]2 | [E,G,] A,2 A, [A,C]2 | %9
 A, [E,G,]2 [E,G,] [E,B,]2 | [E,G,] [B,,F,]2 [B,,F,] [B,,B,]2 | [D,B,] [F,B,]2 [F,=A,] [B,,B,]2 | %12
 [B,,B,] [E,B,]2 [E,B,] [E,B,]2 | [E,E] [E,E]2 [E,E] [E,B,]2 | z [B,,B,][B,,B,] [B,,B,] [E,B,]2 | %15
 z [B,,B,][B,,B,] [B,,B,] [E,G,]2- | [E,G,]6 |] %17

